X:1
T:Gavotte : Suite Ambroise
K:G
T:Ton kentan
M:4/4
L:1/8
K:G
BA FG AB A2|BA FG A2F2 :: BA FG AB A2|BA FE F2 E2:|
BA FA BA FA|BA GE GA/2G/2 FA ::BA FA BA B2|(3ABA FD E2 D2 :|
FG AB AB FE|FG BA G2 A2:: FG AB AB FA|AF GF E2 D2:|
T:Tamm kreizh
M:12/8
L:1/8
K:G
AAF G3 ABA F3|DGF E2 F A2 F D3 :| ABA GAB ABA F2 D|GFG EFG A2 B F2 D|\
ABA GAB ABA F2 D|GFG EFG A2 F D3|
T:Ton diwezhan
M:4/4
L:1/8
K:G 
(3GFE FG Ac B2|AF AG F2 E2::(3GFE FG Ac B2|\
(3BAB dc Ac B2|(3GFE FG Ac B2|A>F AG F2 E2:|
